src/food-drink/food-prepared/1F355.svg

<svg id="emoji" viewBox="0 0 72 72" xmlns="http://www.w3.org/2000/svg">
  <g id="grid">
    <path fill="#b3b3b3" d="M68,4V68H4V4H68m4-4H0V72H72V0Z"/>
    <path fill="none" stroke="#00a5ff" stroke-miterlimit="10" stroke-width="0.1" d="M12.923,10.9583H59.0769A1.9231,1.9231,0,0,1,61,12.8814V59.0352a1.9231,1.9231,0,0,1-1.9231,1.9231H12.9231A1.9231,1.9231,0,0,1,11,59.0352V12.8813A1.923,1.923,0,0,1,12.923,10.9583Z"/>
    <rect x="16" y="4" rx="2.2537" width="40" height="64" fill="none" stroke="#00a5ff" stroke-miterlimit="10" stroke-width="0.1"/>
    <rect x="16" y="4" rx="2.2537" width="40" height="64" transform="translate(72) rotate(90)" fill="none" stroke="#00a5ff" stroke-miterlimit="10" stroke-width="0.1"/>
    <circle cx="36" cy="36" r="29" fill="none" stroke="#00a5ff" stroke-miterlimit="10" stroke-width="0.1"/>
  </g>
  <g id="color">
    <path fill="#f4aa41" stroke="none" d="M52.2637,19.7373c0.4765,0.4775,0.916,0.9775,1.3418,1.4854l2.9004-5.7286 c-11.3252-11.3252-29.6875-11.3252-41.0118,0l2.9004,5.7286c0.4258-0.5079,0.8653-1.0079,1.3418-1.4854 C28.7197,10.7539,43.2803,10.7539,52.2637,19.7373z"/>
    <path fill="#fcea2b" stroke="none" d="M53.6055,21.2227c-0.4258-0.5079-0.8653-1.0079-1.3418-1.4854c-8.9834-8.9834-23.544-8.9834-32.5274,0 c-0.4765,0.4775-0.916,0.9775-1.3418,1.4854L36,56L53.6055,21.2227z"/>
    <circle cx="31" cy="24" r="5" fill="#ea5a47" stroke="none"/>
    <circle cx="44" cy="24" r="3" fill="#ea5a47" stroke="none"/>
    <circle cx="37" cy="36" r="3" fill="#ea5a47" stroke="none"/>
  </g>
  <g id="hair"/>
  <g id="skin"/>
  <g id="skin-shadow"/>
  <g id="line">
    <path fill="none" stroke="#000000" stroke-linecap="round" stroke-linejoin="round" stroke-miterlimit="10" stroke-width="2" d="M52.2637,19.7373c0.4765,0.4775,0.916,0.9775,1.3418,1.4854l2.9004-5.7286c-11.3252-11.3252-29.6875-11.3252-41.0118,0 l2.9004,5.7286c0.4258-0.5079,0.8653-1.0079,1.3418-1.4854C28.7197,10.7539,43.2803,10.7539,52.2637,19.7373z"/>
    <path fill="none" stroke="#000000" stroke-linecap="round" stroke-linejoin="round" stroke-miterlimit="10" stroke-width="2" d="M53.6055,21.2227c-0.4258-0.5079-0.8653-1.0079-1.3418-1.4854c-8.9834-8.9834-23.544-8.9834-32.5274,0 c-0.4765,0.4775-0.916,0.9775-1.3418,1.4854L36,56L53.6055,21.2227z"/>
    <circle cx="31" cy="24" r="5" fill="none" stroke="#000000" stroke-linecap="round" stroke-linejoin="round" stroke-miterlimit="10" stroke-width="2"/>
    <circle cx="44" cy="24" r="3" fill="none" stroke="#000000" stroke-linecap="round" stroke-linejoin="round" stroke-miterlimit="10" stroke-width="2"/>
    <circle cx="37" cy="36" r="3" fill="none" stroke="#000000" stroke-linecap="round" stroke-linejoin="round" stroke-miterlimit="10" stroke-width="2"/>
  </g>
</svg>

<svg viewBox="0 0 72 72" xmlns="http://www.w3.org/2000/svg"><path fill="#b3b3b3" d="M68 4v64H4V4h64m4-4H0v72h72V0z"/><path fill="none" stroke="#00a5ff" stroke-miterlimit="10" stroke-width=".1" d="M12.923 10.958h46.154A1.923 1.923 0 0161 12.881v46.154a1.923 1.923 0 01-1.923 1.923H12.923A1.923 1.923 0 0111 59.035V12.881a1.923 1.923 0 011.923-1.923z"/><rect x="16" y="4" rx="2.254" width="40" height="64" fill="none" stroke="#00a5ff" stroke-miterlimit="10" stroke-width=".1"/><rect x="16" y="4" rx="2.254" width="40" height="64" transform="rotate(90 36 36)" fill="none" stroke="#00a5ff" stroke-miterlimit="10" stroke-width=".1"/><circle cx="36" cy="36" r="29" fill="none" stroke="#00a5ff" stroke-miterlimit="10" stroke-width=".1"/><g stroke-linecap="round" stroke-miterlimit="10" stroke-width="6" stroke="#fff" fill="none" stroke-linejoin="round"><path d="M52.264 19.737c.476.478.916.978 1.341 1.486l2.9-5.729c-11.324-11.325-29.687-11.325-41.01 0l2.9 5.729c.425-.508.865-1.008 1.341-1.486 8.984-8.983 23.544-8.983 32.528 0z"/><path d="M53.605 21.223a23.038 23.038 0 00-1.341-1.486c-8.984-8.983-23.544-8.983-32.528 0-.476.478-.916.978-1.342 1.486L36 56l17.605-34.777z"/><circle cx="31" cy="24" r="5"/><circle cx="44" cy="24" r="3"/><circle cx="37" cy="36" r="3"/></g><path fill="#f4aa41" d="M52.264 19.737c.476.478.916.978 1.341 1.486l2.9-5.729c-11.324-11.325-29.687-11.325-41.01 0l2.9 5.729c.425-.508.865-1.008 1.341-1.486 8.984-8.983 23.544-8.983 32.528 0z"/><path fill="#fcea2b" d="M53.605 21.223a23.038 23.038 0 00-1.341-1.486c-8.984-8.983-23.544-8.983-32.528 0-.476.478-.916.978-1.342 1.486L36 56l17.605-34.777z"/><circle cx="31" cy="24" r="5" fill="#ea5a47"/><circle cx="44" cy="24" r="3" fill="#ea5a47"/><circle cx="37" cy="36" r="3" fill="#ea5a47"/><g fill="none" stroke="#000" stroke-linecap="round" stroke-linejoin="round" stroke-miterlimit="10" stroke-width="2"><path d="M52.264 19.737c.476.478.916.978 1.341 1.486l2.9-5.729c-11.324-11.325-29.687-11.325-41.01 0l2.9 5.729c.425-.508.865-1.008 1.341-1.486 8.984-8.983 23.544-8.983 32.528 0z"/><path d="M53.605 21.223a23.038 23.038 0 00-1.341-1.486c-8.984-8.983-23.544-8.983-32.528 0-.476.478-.916.978-1.342 1.486L36 56l17.605-34.777z"/><circle cx="31" cy="24" r="5"/><circle cx="44" cy="24" r="3"/><circle cx="37" cy="36" r="3"/></g></svg>
